icons/delete-back-line.svg

<svg xmlns="http://www.w3.org/2000/svg" width="24" height="24" fill="none"><g clip-path="url(#a)"><g><path fill="#121212" d="M6.5353 3H21.0003C21.2655 3 21.5199 3.10536 21.7074 3.29289C21.8949 3.48043 22.0003 3.73478 22.0003 4V20C22.0003 20.2652 21.8949 20.5196 21.7074 20.7071C21.5199 20.8946 21.2655 21 21.0003 21H6.5353C6.37071 21 6.20865 20.9594 6.06352 20.8818C5.91838 20.8042 5.79465 20.6919 5.7033 20.555L0.370298 12.555C0.260659 12.3907 0.202148 12.1975 0.202148 12C0.202148 11.8025 0.260659 11.6093 0.370298 11.445L5.7033 3.445C5.79465 3.30808 5.91838 3.19583 6.06352 3.11821C6.20865 3.04058 6.37071 2.99998 6.5353 3ZM7.0703 5L2.4043 12L7.0703 19H20.0003V5H7.0703ZM16.0003 11V13H9.0003V11H16.0003Z"/></g></g><defs><clipPath id="a"><rect width="24" height="24" fill="white"/></clipPath></defs></svg>

<svg width="24" height="24" fill="none" xmlns="http://www.w3.org/2000/svg"><g clip-path="url(#a)"><path d="M6.535 3H21a1 1 0 0 1 1 1v16a1 1 0 0 1-1 1H6.535a1 1 0 0 1-.832-.445l-5.333-8a1 1 0 0 1 0-1.11l5.333-8A1 1 0 0 1 6.535 3Zm.535 2-4.666 7 4.666 7H20V5H7.07ZM16 11v2H9v-2h7Z" /></g><defs><clipPath id="a"><path fill="#fff" d="M0 0h24v24H0z"/></clipPath></defs></svg>
